assets/svgs/misc-grey/MiscGrey26.svg

<svg xmlns="http://www.w3.org/2000/svg" fill="none" viewBox="0 0 48 47"><path fill="#1A1919" fill-rule="evenodd" d="M31.41.27a16.34 16.34 0 00-15.34 10.68c-1.18-.49-2.23-.7-3.97-.7-6.28 0-11.38 5.1-11.38 11.38 0 6.27 5.1 11.38 11.38 11.38h7.84c.82 0 1.5-.68 1.5-1.5 0-.83-.68-1.5-1.5-1.5H12.1c-4.62 0-8.38-3.76-8.38-8.38 0-4.62 3.76-8.38 8.38-8.38 1.8 0 2.41.21 4.2 1.13h.01c.06.03.12.05.18.07.04.01.07.03.11.04.01 0 .01 0 .02.01.05.01.09.01.14.02.04 0 .09.01.14.02.05 0 .11 0 .16-.01.04 0 .08 0 .13-.01.05 0 .1-.02.16-.03l.12-.03c.05-.02.09-.04.14-.06l.12-.06c.05-.03.08-.06.13-.09.03-.02.07-.05.11-.08.04-.04.07-.08.11-.12l.09-.09c.04-.05.07-.11.1-.17a.18.18 0 00.05-.07v-.01c.03-.05.05-.11.07-.17.01-.04.03-.08.04-.12 0 0 .01-.01.01-.02A13.343 13.343 0 0131.41 3.27c7.37 0 13.37 6 13.37 13.37 0 7.37-6 13.37-13.37 13.37-.83 0-1.5.67-1.5 1.5 0 .82.67 1.5 1.5 1.5 9.03 0 16.37-7.35 16.37-16.37C47.78 7.62 40.44.27 31.41.27z" clip-rule="evenodd"/><path fill="#1A1919" fill-rule="evenodd" d="M31.46 37.04l-4.08 4.17V23.5c0-.83-.67-1.5-1.5-1.5-.82 0-1.5.67-1.5 1.5v17.87l-4.34-4.42c-.29-.3-.68-.45-1.07-.45a1.5 1.5 0 00-1.07 2.55l6.84 6.96c.28.29.67.45 1.07.45s.79-.17 1.07-.45l6.73-6.87a1.5 1.5 0 00-.02-2.12c-.6-.58-1.55-.57-2.13.02z" clip-rule="evenodd"/></svg>

<svg width="48" height="47" viewBox="0 0 48 47" fill="none" xmlns="http://www.w3.org/2000/svg">
<path fill-rule="evenodd" clip-rule="evenodd" d="M31.41 0.27002C24.49 0.27002 18.42 4.59002 16.07 10.95C14.89 10.46 13.84 10.25 12.1 10.25C5.81997 10.25 0.719971 15.35 0.719971 21.63C0.719971 27.9 5.81997 33.01 12.1 33.01H19.94C20.76 33.01 21.44 32.33 21.44 31.51C21.44 30.68 20.76 30.01 19.94 30.01H12.1C7.47997 30.01 3.71997 26.25 3.71997 21.63C3.71997 17.01 7.47997 13.25 12.1 13.25C13.9 13.25 14.51 13.46 16.3 14.38C16.31 14.38 16.31 14.38 16.31 14.38C16.37 14.41 16.43 14.43 16.49 14.45C16.53 14.46 16.56 14.48 16.6 14.49C16.61 14.49 16.61 14.49 16.62 14.5C16.67 14.51 16.71 14.51 16.76 14.52C16.8 14.52 16.85 14.53 16.9 14.54C16.95 14.54 17.01 14.54 17.06 14.53C17.1 14.53 17.14 14.53 17.19 14.52C17.24 14.52 17.29 14.5 17.35 14.49C17.39 14.48 17.43 14.47 17.47 14.46C17.52 14.44 17.56 14.42 17.61 14.4C17.65 14.38 17.69 14.36 17.73 14.34C17.78 14.31 17.81 14.28 17.86 14.25C17.89 14.23 17.93 14.2 17.97 14.17C18.01 14.13 18.04 14.09 18.08 14.05C18.11 14.02 18.14 13.99 18.17 13.96C18.21 13.91 18.24 13.85 18.27 13.79C18.29 13.77 18.31 13.75 18.32 13.72V13.71C18.35 13.66 18.37 13.6 18.39 13.54C18.4 13.5 18.42 13.46 18.43 13.42C18.43 13.42 18.44 13.41 18.44 13.4C19.92 7.44002 25.26 3.27002 31.41 3.27002C38.78 3.27002 44.78 9.27002 44.78 16.64C44.78 24.01 38.78 30.01 31.41 30.01C30.58 30.01 29.91 30.68 29.91 31.51C29.91 32.33 30.58 33.01 31.41 33.01C40.44 33.01 47.78 25.66 47.78 16.64C47.78 7.62002 40.44 0.27002 31.41 0.27002Z" fill="#1A1919"/>
<path fill-rule="evenodd" clip-rule="evenodd" d="M31.46 37.04L27.38 41.21V23.5C27.38 22.67 26.71 22 25.88 22C25.06 22 24.38 22.67 24.38 23.5V41.37L20.04 36.95C19.75 36.65 19.36 36.5 18.97 36.5C18.59 36.5 18.21 36.64 17.92 36.93C17.33 37.51 17.32 38.46 17.9 39.05L24.74 46.01C25.02 46.3 25.41 46.46 25.81 46.46C26.21 46.46 26.6 46.29 26.88 46.01L33.61 39.14C34.19 38.55 34.18 37.6 33.59 37.02C32.99 36.44 32.04 36.45 31.46 37.04Z" fill="#1A1919"/>
</svg>
